X:3057
T:Tinnehinch Castle
O:ireland
B:Joyce, P. W.; "Old Irish Folk Music and Songs"
N:See #286 for history
A:Kilkenny
R:tune
M:3/4
K:G
L:1/4
D|G B d|g f g|e d B|A2 B|G2 z/f/|g f e|
d e g|a b g|e d B|HA2 ((3d/e/f/)|g f e|d f g|a b g|
d e f|g2 B/A/|G B d|g f g|e d B|A2 G|G2||
